!!!SOCIAL_FUNCTION:	songs of war
!!!PDT:	1918

Specific Region: Dakotas, Minnesota, Montana, Nebraska
!!!REG: Dakotas and Montana
!!!LING_GROUP: Siouan
!!!LANG: Tone
!!!OTL@ENG: Those Are Not My Interest
!!!ONM: No. 125b
**kern
*Imale
*clefF4
*k[b-e-]
*M3/4
*MM88
8G
8G
=1
4d
4d
8c
16d
16c
=2||
*M2/4
8B-
8B-
8c
8B-
=3
4B-
8G
8G
=4
4G
16d
16B-
16d
16B-
=5||
*M5/8
8B-
8B-
8d
8B-
8G
=6
8F
8F
8F
8D
8D
=7
8F
8F
8B-
8G
8G
=8||
*M2/4
8F
8F
4F
=9
8D
8D
4D
=10
[2BB-
=11
2BB-_
=12||
*M3/4
2BB-]
8G
8G
=13
4d
4d
8c
8d
=14
8B-
8B-
2B-
=15||
*M2/4
8G
8G
4G
=16
(16d
16c)
(16d
16c)
8B-
8B-
=17||
*M3/8
8d
8B-
8G
=18||
*M5/8
8F
8F
8F
8D
8D
=19||
*M2/4
8F
8F
16B-
8.G
=20
8G
8F
8F
8D
=21
8.D
16D
4BB-
=22
2BB-
=23
2BB-
==
*-
!!!CNT: Native American -- Sioux
!!!MRD: 1911/07//-1914///
!!!OCL: Frances Densmore
!!!YOR1: Teton Sioux Music, Bulletin 61,
!!!YOR2: Bureau of American Ethnology, Smithsonian Institution
!!!PPR: Government Printing Office
!!!PPP: Washington, D.C.
!!!PDT: 1918///
!!!ENC: Craig Stuart Sapp
!!!END: 2002/03/25/
!!!EEV: 2002/03/31/
!!!AGN: War Song/Song of a Typical War Expedition
!!!MPN@@SIO: Waha'chungka-nong'pa
!!!MPN@ENG: Two Shields
!!!TXO: Teton Sioux
!!!MLC: Standing Rock Reservation, South Dakota, United States of America
!!!ARL: 45.9/-100.7#
!!!catalog: Catalogue No. 528
!!!PPG: 336
!!!EFL: 126/245
!!!VTS: 1121293894
